X: 53
M: 4/4
L: 1/8
K: Bb
{F}B2 |\
g2a2 b2a2 | gf=ef gfdB | AcFA cdcA | Bdgf =efdB |
g2a2 b2a2 | gf=ef gfdB | AcFA cdcA | B2d2 [B2D2]z2 ||


